client/public/assets/icons/custom/custom91.svg

<?xml version="1.0"?><svg xmlns="http://www.w3.org/2000/svg" width="100" height="100" viewBox="0 0 100 100"><g fill="#fff"><path d="m77.8 32.6c-3-0.9-5.6-3-7.3-5.7-1.3-2.1-1.4-6.9-4.6-6.9h-31.8c-3.3 0-3.3 4.8-4.6 6.9-2.1 3.3-4.8 4.1-8 6-3.3 1.9-0.2 9.9 0.5 12.7 3.1 11.1 9 21.4 18.2 28.7 2.6 2.1 5.4 3.9 8.4 5.4 2.7 1.4 7.2-2.5 9.2-4 5.2-3.7 9.5-8.4 12.9-13.7 2.9-4.6 5.1-9.6 6.7-14.8 0.6-2.1 1.2-4.2 1.6-6.4 0.4-1.8 1.3-4.6 0.7-6.4-0.2-0.8-1-1.5-1.9-1.8-4.6-1.4 1.4 0.4 0 0z m-4.4 7c-2.7 13.4-9.9 25.9-21.8 33.2l-1.6 1-1.6-1c-14.4-8.8-19.8-22.9-21.8-33.2l-0.4-2.1 1.8-1.1c3.1-1.9 6-5.2 7.7-8.7l0.8-1.8h27l0.5 1.3c1.7 3.8 4.8 7.4 8.5 9.5l1.3 0.7v0.1l-0.4 2.1z m-24.5-7.6c-2.3 0-7.9 0-9 1-1.9 1.7-3 4.2-5 5.9-2.1 1.8-1.1 3.6-0.4 6 1.4 4.2 3.3 8.3 5.9 12 1.3 1.9 2.8 3.7 4.5 5.3 0.5 0.5 5.1 5.1 5.1 2.2v-30.4c0-1.1 0-2-1.1-2z"></path></g></svg>

<?xml version="1.0" encoding="utf-8"?>
<!-- Generator: Adobe Illustrator 16.0.0, SVG Export Plug-In . SVG Version: 6.00 Build 0)  -->
<!DOCTYPE svg PUBLIC "-//W3C//DTD SVG 1.1//EN" "http://www.w3.org/Graphics/SVG/1.1/DTD/svg11.dtd">
<svg version="1.1" id="Layer_1" xmlns="http://www.w3.org/2000/svg" xmlns:xlink="http://www.w3.org/1999/xlink" x="0px" y="0px"
	 width="100px" height="100px" viewBox="0 0 100 100" enable-background="new 0 0 100 100" xml:space="preserve">
<g>
	<path fill="#FFFFFF" d="M77.8,32.6c-3-0.9-5.6-3-7.3-5.7c-1.3-2.1-1.4-6.9-4.6-6.9H34.1c-3.3,0-3.3,4.8-4.6,6.9
		c-2.1,3.3-4.8,4.1-8,6c-3.3,1.9-0.2,9.9,0.5,12.7c3.1,11.1,9,21.4,18.2,28.7c2.6,2.101,5.4,3.9,8.4,5.4c2.7,1.399,7.2-2.5,9.2-4
		C63,72,67.3,67.3,70.7,62c2.899-4.6,5.1-9.6,6.7-14.8C78,45.1,78.6,43,79,40.8c0.4-1.8,1.3-4.6,0.7-6.4
		C79.5,33.6,78.7,32.9,77.8,32.6C73.2,31.2,79.2,33,77.8,32.6z M73.4,39.6C70.7,53,63.5,65.5,51.6,72.8l-1.6,1l-1.6-1
		C34,64,28.6,49.9,26.6,39.6l-0.4-2.1l1.8-1.1c3.1-1.9,6-5.2,7.7-8.7l0.8-1.8H50h13.4h0.1l0.5,1.3c1.7,3.8,4.8,7.4,8.5,9.5l1.3,0.7
		v0.1l0,0L73.4,39.6z"/>
	<path fill="#FFFFFF" d="M48.9,32c-2.3,0-7.9,0-9,1c-1.9,1.7-3,4.2-5,5.9c-2.1,1.8-1.1,3.6-0.4,6c1.4,4.2,3.3,8.3,5.9,12
		c1.3,1.899,2.8,3.699,4.5,5.3c0.5,0.5,5.1,5.1,5.1,2.2V34C50,32.9,50,32,48.9,32z"/>
</g>
</svg>
